src/status/symbolic/inhibit-notification-active-symbolic.svg

<svg width="16" height="16" version="1.0" viewBox="0 0 16 16" xmlns="http://www.w3.org/2000/svg">
 <path d="m8 1a1 1 0 0 0-0.99414 1.0996 4.988 4.988 0 0 0-4.0059 4.9004v4.5l-2 2v0.5h7.2676a4.5 4.5 0 0 1-0.23242-1h-5.0352l1-1.0781v-4.9219a4 4 0 0 1 4-4 4 4 0 0 1 4 4v1.0352a4.5 4.5 0 0 1 0.5-0.035156 4.5 4.5 0 0 1 0.5 0.029297v-1.0293a4.987 4.987 0 0 0-4.0059-4.9004 1 1 0 0 0-0.99414-1.0996zm-1.7305 14a2 2 0 0 0 1.7305 1 2 2 0 0 0 1.2168-0.43555 4.5 4.5 0 0 1-0.45312-0.56445h-2.4941z" fill="#363636"/>
 <path class="error" d="m12.5 9c-1.933 0-3.5 1.567-3.5 3.5s1.567 3.5 3.5 3.5 3.5-1.567 3.5-3.5-1.567-3.5-3.5-3.5zm-2.5 2.9688h5v1.0312h-5z" fill="#ef2929"/>
</svg>

<svg xmlns="http://www.w3.org/2000/svg" width="16" height="16" version="1.0">
    <path fill="#050505" fill-opacity=".7" d="M8 1a1 1 0 0 0-.994 1.1A4.988 4.988 0 0 0 3 7v4.5l-2 2v.5h7.268a4.5 4.5 0 0 1-.233-1H3l1-1.078V7a4 4 0 0 1 4-4 4 4 0 0 1 4 4v1.035A4.5 4.5 0 0 1 12.5 8a4.5 4.5 0 0 1 .5.03V7a4.987 4.987 0 0 0-4.006-4.9A1 1 0 0 0 8 1zM6.27 15A2 2 0 0 0 8 16a2 2 0 0 0 1.217-.436A4.5 4.5 0 0 1 8.764 15H6.27z"/>
    <path fill="#ec9b97" d="M12.5 9a3.5 3.5 0 1 0 0 7 3.5 3.5 0 0 0 0-7zM10 11.969h5V13h-5z" class="error"/>
</svg>
